images/404.svg

<svg height="160" viewBox="0 0 490 160" width="490" xmlns="http://www.w3.org/2000/svg"><g fill="none" fill-rule="evenodd"><path d="m-395-208h1280v800h-1280z" fill="#fff"/><path d="m280 94 56 34.291971c-13.389945 18.074231-33.732184 29.592308-56 31.708029zm63.840725 21-63.840725-39.1666667v-75.8333333c40.847934 3.79123023 72.081886 38.4576461 71.999839 79.9122807-.018586 12.1737827-2.810401 24.1797963-8.159114 35.0877193zm-143.845553-70 64.004828 39.4789272v75.5210728c-40.779915-3.843675-71.973925-38.529415-72-80.059387.009464-12.1119169 2.743905-24.0620073 7.995172-34.940613zm64.004828 21-56-34.194865c13.320515-18.1156593 33.68336-29.68071367 56-31.805135zm-96 61.314286h-19.143066v24.685714h-47.137226v-24.685714h-74.719708v-30.8571431l61.1343066-88.4571429h49.8131384l-54.3416056 81.6685714h19.5547446v-22.0114285h45.69635v22.0114285h19.143066zm349 0h-19.143066v24.685714h-47.137226v-24.685714h-74.719708v-30.8571431l61.134307-88.4571429h49.813138l-54.341606 81.6685714h19.554745v-22.0114285h45.69635v22.0114285h19.143066z" fill="#007df7" fill-rule="nonzero" transform="translate(-27)"/></g></svg>

<?xml version="1.0" encoding="UTF-8"?>
<svg width="490px" height="160px" viewBox="0 0 490 160" version="1.1" xmlns="http://www.w3.org/2000/svg" xmlns:xlink="http://www.w3.org/1999/xlink">
    <!-- Generator: Sketch 51 (57462) - http://www.bohemiancoding.com/sketch -->
    <title>Img</title>
    <desc>Created with Sketch.</desc>
    <defs></defs>
    <g id="Desktop" stroke="none" stroke-width="1" fill="none" fill-rule="evenodd">
        <g id="404" transform="translate(-395.000000, -208.000000)">
            <rect fill="#FFFFFF" x="0" y="0" width="1280" height="800"></rect>
            <g id="Text" transform="translate(368.000000, 208.000000)" fill="#007DF7" fill-rule="nonzero">
                <path d="M280,94 L336,128.291971 C322.610055,146.366202 302.267816,157.884279 280,160 L280,94 Z M343.840725,115 L280,75.8333333 L280,0 C320.847934,3.79123023 352.081886,38.4576461 351.999839,79.9122807 C351.981253,92.0860634 349.189438,104.092077 343.840725,115 Z M199.995172,45 L264,84.4789272 L264,160 C223.220085,156.156325 192.026075,121.470585 192,79.940613 C192.009464,67.8286961 194.743905,55.8786057 199.995172,45 Z M264,66 L208,31.805135 C221.320515,13.6894757 241.68336,2.12442133 264,0 L264,66 Z M168,127.314286 L148.856934,127.314286 L148.856934,152 L101.719708,152 L101.719708,127.314286 L27,127.314286 L27,96.4571429 L88.1343066,8 L137.947445,8 L83.6058394,89.6685714 L103.160584,89.6685714 L103.160584,67.6571429 L148.856934,67.6571429 L148.856934,89.6685714 L168,89.6685714 L168,127.314286 Z M517,127.314286 L497.856934,127.314286 L497.856934,152 L450.719708,152 L450.719708,127.314286 L376,127.314286 L376,96.4571429 L437.134307,8 L486.947445,8 L432.605839,89.6685714 L452.160584,89.6685714 L452.160584,67.6571429 L497.856934,67.6571429 L497.856934,89.6685714 L517,89.6685714 L517,127.314286 Z" id="Img"></path>
            </g>
        </g>
    </g>
</svg>
